Numix-GalliumOS/scalable/places/user-trash-symbolic.svg

<?xml version="1.0" encoding="UTF-8" standalone="no"?>
<svg
   xmlns:dc="http://purl.org/dc/elements/1.1/"
   xmlns:cc="http://creativecommons.org/ns#"
   xmlns:rdf="http://www.w3.org/1999/02/22-rdf-syntax-ns#"
   xmlns:svg="http://www.w3.org/2000/svg"
   xmlns="http://www.w3.org/2000/svg"
   xmlns:sodipodi="http://sodipodi.sourceforge.net/DTD/sodipodi-0.dtd"
   xmlns:inkscape="http://www.inkscape.org/namespaces/inkscape"
   width="16"
   height="16"
   viewBox="0 0 16 16"
   id="svg2"
   version="1.1"
   inkscape:version="0.48.4 r9939"
   sodipodi:docname="user-trash-symbolic.svg">
  <metadata
     id="metadata20">
    <rdf:RDF>
      <cc:Work
         rdf:about="">
        <dc:format>image/svg+xml</dc:format>
        <dc:type
           rdf:resource="http://purl.org/dc/dcmitype/StillImage" />
      </cc:Work>
    </rdf:RDF>
  </metadata>
  <defs
     id="defs18" />
  <sodipodi:namedview
     pagecolor="#ffffff"
     bordercolor="#666666"
     borderopacity="1"
     objecttolerance="10"
     gridtolerance="10"
     guidetolerance="10"
     inkscape:pageopacity="0"
     inkscape:pageshadow="2"
     inkscape:window-width="1920"
     inkscape:window-height="1023"
     id="namedview16"
     showgrid="true"
     inkscape:zoom="40"
     inkscape:cx="4.1075447"
     inkscape:cy="8.1737009"
     inkscape:window-x="0"
     inkscape:window-y="28"
     inkscape:window-maximized="1"
     inkscape:current-layer="svg2">
    <inkscape:grid
       type="xygrid"
       id="grid2997" />
  </sodipodi:namedview>
  <path
     style="fill:#bebebe;fill-opacity:1;stroke:none"
     d="m 3,7 0,7 c 0,1.108 0.892,2 2,2 l 6,0 c 1.108,0 2,-0.892 2,-2 L 13,7 z M 6.5,9 C 6.777,9 7,9.223 7,9.5 l 0,4 C 7,13.777 6.777,14 6.5,14 6.223,14 6,13.777 6,13.5 l 0,-4 C 6,9.223 6.223,9 6.5,9 z m 3,0 C 9.777,9 10,9.223 10,9.5 l 0,4 C 10,13.777 9.777,14 9.5,14 9.223,14 9,13.777 9,13.5 l 0,-4 C 9,9.223 9.223,9 9.5,9 z"
     id="rect2999"
     inkscape:connector-curvature="0"
     sodipodi:nodetypes="cssssccssssssssssssss" />
  <path
     style="fill:#bebebe;fill-opacity:1;stroke:none"
     d="M 2,6 14,6 C 15,6 15,6 14,4.5 13,3 13,3 12,3 L 4,3 C 3,3 3,3 2,4.5 1,6 1,6 2,6 z"
     id="path3002"
     inkscape:connector-curvature="0"
     sodipodi:nodetypes="ccccccc" />
  <path
     style="fill:#bebebe;fill-opacity:1;stroke:none"
     d="M 8,0 C 6.3431457,0 5,1.3431457 5,3 5,4.6568543 6.3431457,6 8,6 9.656854,6 11,4.6568543 11,3 11,1.3431457 9.656854,0 8,0 z M 8,1.5 C 8.8284272,1.5 9.5,2.1715729 9.5,3 9.5,3.8284271 8.8284272,4.5 8,4.5 7.1715728,4.5 6.5,3.8284271 6.5,3 6.5,2.1715729 7.1715728,1.5 8,1.5 z"
     id="path3772"
     inkscape:connector-curvature="0" />
</svg>

<svg xmlns="http://www.w3.org/2000/svg" viewBox="0 0 16 16">
 <path d="m 3,7 0,7 c 0,1.108 0.892,2 2,2 l 6,0 c 1.108,0 2,-0.892 2,-2 L 13,7 z M 6.5,9 C 6.777,9 7,9.223 7,9.5 l 0,4 C 7,13.777 6.777,14 6.5,14 6.223,14 6,13.777 6,13.5 l 0,-4 C 6,9.223 6.223,9 6.5,9 z m 3,0 C 9.777,9 10,9.223 10,9.5 l 0,4 C 10,13.777 9.777,14 9.5,14 9.223,14 9,13.777 9,13.5 l 0,-4 C 9,9.223 9.223,9 9.5,9 z" style="fill:#bebebe;fill-opacity:1;stroke:none"/>
 <path d="M 2,6 14,6 C 15,6 15,6 14,4.5 13,3 13,3 12,3 L 4,3 C 3,3 3,3 2,4.5 1,6 1,6 2,6 z" style="fill:#bebebe;fill-opacity:1;stroke:none"/>
 <path d="m 8 0 c -1.657 0 -3 1.343 -3 3 0 1.657 1.343 3 3 3 1.657 0 3 -1.343 3 -3 0 -1.657 -1.343 -3 -3 -3 z m 0 1.5 c 0.828 0 1.5 0.672 1.5 1.5 0 0.828 -0.672 1.5 -1.5 1.5 -0.828 0 -1.5 -0.672 -1.5 -1.5 0 -0.828 0.672 -1.5 1.5 -1.5 z" style="fill:#bebebe;fill-opacity:1;stroke:none"/>
</svg>
